X: 81
T:Marcha de Breixo
M:4/4
L:1/8
Q:110
C:Trad
S:Rep: X.M.Budiño
R:Marcha
K:C
E2 | G2 {A}G2 {A}G2 F2 | A2 {B}A2 B2- c2 | G3 FE D2  E/2F/2 |1 G6 :|2
G2 (3EGE C4- |: C3 ED3 D/2C/2  | D4- D3 EG F-F E{F} | ED2 B,/2C/2 D4- |
D3 EG F-F E{F} | E D2  B,/2C/2 DE FE | GF2 D/2B,/2C4- :| C3  ||

